X: 3758
T: Birlin In Brittany
R: reel
M: 4/4
K: Bminor
de|:f3g fedc|Bcde fzfz|f3g fede|c~A3 cAce|
f3g fedc|Bcde fzfz|bfge fedc|BAFd B3e:|
|:fdcB gece|a2ab a2ag|f3g fedc|Bcde dcBA|
F~B3 G~B3|dcBA Bcde|f3g fedc|BAFd B3e:|

